static/img/Logo.svg

<svg fill="none" height="200" viewBox="0 0 543 200" width="543" xmlns="http://www.w3.org/2000/svg"><path clip-rule="evenodd" d="m300.814 66.1057c.775.2871 1.452.9571 1.742 1.7227.196.4355.268.8965.254 1.332-.014.4248-.11.8252-.254 1.1563-.868 1.8115-2.695 5.3564-4.538 8.9326-1.858 3.6025-3.731 7.2353-4.654 9.1562-5.321 11.1016-9.772 20.2905-14.223 28.8075-13.933 26.894-31.058 57.042-58.054 73.121-7.837 4.594-17.416 7.944-26.317 9.092-2.709.383-5.515.574-8.225.574-6.773 0-12.384-1.148-17.512-3.445-10.063-4.498-17.9-13.591-20.126-25.841-3.967-21.534 8.031-42.111 29.124-49.96 10.063-3.732 20.899-2.201 27.575 3.828 4.548 4.212 6.29 10.05 4.548 15.984-.097.478-.58.67-.871.574-.29-.096-.58-.383-.484-.766.678-4.593-.29-8.517-2.805-11.293-2.806-3.062-7.451-4.594-12.966-4.307-9.579.478-18.674 6.604-24.963 16.844-7.354 12.06-9.385 27.661-4.547 38.092 3.966 8.422 10.546 13.208 19.835 15.314 13.062 2.966 29.897-1.149 41.508-10.146 19.912-15.392 33.836-44.158 44.764-66.736l.034-.068 1.645-3.541c.341-.72.632-1.441.874-2.089.09-.24.172-.468.248-.683.127-.359.236-.682.326-.948l.003-.012c-9.869 8.422-23.608 16.079-36.477 16.079-4.934 0-9.675-1.054-14.029-3.638-8.708-5.168-12.772-15.695-11.708-30.3384.968-12.7295 5.709-26.2236 9.772-34.5508 13.45-27.3721 33.285-47.0879 55.829-55.50976 9.772-3.637698 23.318-4.49903 31.542 1.72265 3.387 2.58399 5.419 6.60351 5.999 11.67581.871 7.6572-1.935 16.1748-7.257 22.3955-.29.2871-.677.2871-.87.0957-.29-.1914-.388-.5742-.194-.8613 8.515-11.5801 8.805-26.2237.194-31.00883-9.676-5.35938-23.319.28711-29.511 3.54103-23.899 12.6338-39.089 39.4316-47.701 59.626-4.257 9.9531-13.256 34.3584-6.483 46.8964 2.129 3.924 5.709 6.316 10.547 7.273 5.902 1.053 12.094 0 18.867-3.253 17.9-7.944 31.833-33.3061 43.25-57.1371.041-.0401.099-.0801.16-.1065.028-.0127.058-.0215.086-.0254.028-.0049.055-.0039.079.002.024.0058.045.0166.063.0342zm239.376-39.2392-41.606 71.0146-1.935 3.8279c-5.805 10.05-7.934 17.228-5.708 18.855 6.773 4.881 17.997-9.188 23.415-17.419 11.417-17.6106 15.384-27.3723 15.384-27.3723l.484.4785c.201.1993.324.4766.368.7637.041.2647.015.5381-.078.7676-1.161 2.4883-5.031 10.5283-15.674 27.0845-6.967 10.816-17.126 21.152-25.641 17.707-3.58-1.436-5.224-4.499-5.031-8.901-4.741 5.359-9.772 8.613-14.997 9.475-3.29.574-7.257 0-9.483-5.551-.483-1.053-.773-2.775-.87-5.168-6.676 7.848-15.288 13.207-22.061 9.953-1.935-.957-3.193-2.584-3.676-4.594-.871-4.019 1.354-8.9 3.58-13.686.29-.67.677-1.436.967-2.106.668-1.394 1.335-2.7887 2.047-4.1832l.288-.5596c.123-.2373.248-.4746.374-.7119.106-.2246.215-.4492.325-.6738.241-.4932.49-.9864.739-1.4795l.297-.5889c.262-.5215.522-1.043.768-1.5645.087-.1718.174-.3623.269-.5732l.08-.1738.095-.2061c.071-.1523.148-.3135.234-.4824 1.16-2.2012 2.999-5.6475 2.515-7.5615-.29-1.0528-.774-1.627-1.645-1.9141-3.289-.957-10.74 4.4981-12.385 6.0303-8.657 8.1992-13.72 19.2602-19.111 31.0372l-.82 1.79-.871 2.01c-.097.191-.194.287-.387.191l-4.257-1.531c-.439-.124-.757-.369-1.005-.682-.134-.17-.248-.36-.35-.562-.138-.272-.21-.565-.217-.868-.008-.339.064-.693.217-1.046l2.322-5.264c-6.192 7.465-13.739 12.92-20.222 10.24-3.58-1.435-5.225-4.498-5.032-8.9-4.74 5.359-9.771 8.613-14.997 9.474-3.289.575-7.256 0-9.482-5.55-.483-1.244-.871-3.637-.774-6.795-6.87 8.613-16.158 14.929-23.318 11.388-1.935-.957-3.193-2.584-3.677-4.593-1.838-6.891 5.128-18.0892 9.676-25.267.15-.248.326-.5214.502-.7939l.019-.0293.28-.4404.167-.2676 2.515-4.0205c-2.419 1.7236-4.838 3.0635-7.063 3.9248-4.451 1.6269-10.256 2.3926-15.191 1.6269l-18.093 27.946c-.774 1.053-1.355 1.532-2.129.957 0 0-.097-.095-.097-.191v-.287l17.61-27.1808.968-1.627c-4.742-1.1484-8.999-4.2109-10.644-7.9443-2.515-6.0293-.29-12.6328 5.612-16.6523 4.548-3.0635 10.643-3.2549 14.611.0957 4.934 4.2109 2.321 9.1875-3.58 18.2793l-2.129 3.3505c.476.1817.966.335 1.465.461.819.207 1.661.3408 2.502.4004 8.127.6699 12.288-1.5313 17.9-7.083 1.451-1.4356 5.515-7.3692 5.515-7.4649.097-.0957.29-.1914.387-.0957l5.418 2.584c.203.1006.379.2266.515.3799.123.1387.213.2988.259.4814.097.3828.097.8614-.193 1.2442-2.032 3.1582-8.708 14.0693-12.869 21.2466-4.838 8.519-7.547 15.697-6.386 18.185 1.161 2.775 7.644 1.053 12.869-3.828 2.322-2.201 4.644-4.594 6.676-7.369.484-4.021 1.741-8.9016 4.548-14.1653l.089-.168c3.267-6.1797 6.967-13.1777 16.843-17.8252 4.257-2.0097 8.708-2.1054 11.901-.2871 2.612 1.4356 4.16 4.0196 4.547 7.3692.097.3828.097.8613.097 1.2441.291-.6699.677-1.2441 1.065-1.8183.378-.5625 1.453-2.2481 2.451-3.8223 1.041-1.6426 1.999-3.1641 1.999-3.1641.04-.039.096-.0781.156-.1045.085-.0371.175-.0478.231.0088.194 0 4.258 1.627 5.806 2.4883.387.1914.677.4785.774.8613.045.1768.048.375.02.5733-.034.2314-.11.4648-.214.6709-2.032 3.2539-8.708 14.165-12.868 21.3429-5.806 10.05-7.935 17.227-5.709 18.854 5.902 4.403 15.288-5.933 21.19-14.069l3.773-8.5176 9.772-22.1084c.097-.0957.291-.1914.388-.0957 0 0 3.386 1.627 5.515 2.584.967.4785 1.451 1.627.967 2.6797-.622 1.4551-2.005 4.3496-3.317 7.0957-.932 1.9512-1.829 3.8271-2.391 5.0596 6.579-9.0928 14.997-16.2705 20.609-17.0362 5.128-.6699 7.45 1.0528 8.514 2.584 2.129 3.1582 1.452 8.71-1.935 14.4522-1.258 2.2011-3.483 6.3164-4.547 8.3257-4.838 8.519-7.547 15.697-6.387 18.185 1.162 2.775 7.644 1.053 12.869-3.828 1.838-1.723 3.677-3.541 5.322-5.551.193-4.308 1.451-9.858 4.644-15.9833l.089-.1699c3.268-6.1797 6.968-13.1768 16.844-17.8233 4.257-2.0097 8.708-2.1054 11.9-.2871 2.613 1.4356 4.161 4.0196 4.548 7.3692.022.0849.039.1758.052.2685.019.1387.03.2823.037.4248.004.086.006.1709.006.2549l.002.2959c10.546-37.5166 26.608-71.6846 34.929-74.84276 8.321-3.15821 15.191 5.45506 8.321 17.22756zm-10.16 2.0097c5.903-10.2412 5.709-15.0263 3.677-15.6962-8.805-2.8711-29.124 48.4277-34.348 68.5263.662-1.1465 1.502-2.5947 2.481-4.2783 1.889-3.251 4.297-7.3828 6.942-11.9229 7.197-12.3486 16.156-27.7216 21.248-36.6289zm-212.96 45.1739c-1.935 2.9668-3.193 7.1777.484 11.4843.433.5235.962 1.0235 1.55 1.4766.596.458 1.252.8672 1.933 1.2041l2.612-4.2119c2.516-3.8281 5.903-10.1445 1.452-12.6328-2.709-1.4356-6.289-.0957-8.031 2.6797zm66.762 24.7881c.193-.5743.58-1.3399 1.064-2.2969l.441-.8877c2.36-4.7393 6.545-13.1436 5.365-16.9141-.388-.8613-.871-1.4355-1.742-1.8183-.581-.2871-1.064-.3828-1.645-.3828-5.322 0-12.288 11.2939-14.707 15.4091l-.483.8614c-6.096 9.9531-12.482 23.2571-10.257 27.3721.484.957 1.355 1.435 2.612 1.531 3.968-.096 11.224-4.976 19.352-22.8738zm102.174 0c.194-.5743.581-1.3399 1.065-2.2969.248-.502.53-1.0586.833-1.6563 2.414-4.7656 6.176-12.1914 4.972-15.7627-.387-.8613-.871-1.4355-1.742-1.8183-.182-.0908-.356-.1621-.525-.2178-.154-.0498-.306-.0869-.459-.1133-.212-.0361-.429-.0517-.66-.0517-5.322 0-12.385 10.9111-14.804 15.0263l-.484.8614c-5.999 9.9531-12.095 23.0651-9.869 27.1811.266.525.648.907 1.147 1.16.138.069.284.129.438.179.308.1.65.163 1.027.192 3.968-.096 10.934-4.785 19.061-22.6828zm-307.394-.4786-1.258-.6699c-6.096 10.2413-15.868 23.6393-28.446 23.6393-5.322 0-8.999-5.072-6.289-11.867 1.354-3.445 4.063-6.604 4.063-6.604s16.449.478 26.027-7.6566c9.676-8.1347 5.322-18.5673-3.579-19.0459-7.644-.3828-17.126 4.5938-27.576 19.333-.307.3907-.575.8018-.821 1.2227-.295.5078-.56 1.0303-.824 1.5527-2.225 4.0191-3.483 8.2311-3.58 12.0601-1.644 2.009-3.483 3.828-5.321 5.55-5.225 4.881-11.708 6.604-12.869 3.828-1.161-2.488 1.549-9.666 6.386-18.184 1.064-2.0099 3.29-6.1252 4.548-8.3263 3.386-5.7422 4.063-11.294 1.935-14.4522-1.065-1.5312-3.387-3.2539-8.515-2.584-5.612.7657-15.287 8.9014-21.77 18.2803 1.355-2.9668 19.545-41.9199 20.609-44.4082.484-1.0527 0-2.2012-.967-2.6797-2.129-.957-5.515-2.584-5.515-2.584-.097-.0957-.291 0-.388.0957l-23.5113 53.0215-8.708 19.7159c-.2906.67-.2906 1.34 0 1.914.0664.132.1382.259.2173.378.2656.4.6152.719 1.1372.866l4.2573 1.531c.1299.065.2163.042.2886-.037.0351-.039.0669-.092.0986-.154l.8706-2.01c5.7085-12.441 11.1267-24.2136 20.1257-32.8269 1.644-1.5313 8.804-6.9873 12.191-6.0303.199.0654.378.1455.538.2432.177.1084.332.2373.469.3896.283.3154.487.7334.638 1.2813.477 1.8886-1.305 5.2675-2.469 7.4707l-.047.0908c-.161.3174-.291.6055-.409.8642-.095.21-.182.4004-.268.5713-.677 1.4356-1.452 2.8711-2.129 4.3067-.967 1.8183-1.838 3.6364-2.709 5.4554-.146.337-.316.697-.486 1.057-.169.358-.337.715-.482 1.048-2.225 4.786-4.45 9.667-3.579 13.687.483 2.009 1.741 3.636 3.676 4.593 6.773 3.35 15.481-2.201 22.157-10.048.031.18.061.371.091.564l.055.345c.048.31.096.622.145.909 1.161 4.594 3.966 9.283 11.61 9.283 17.32 0 30.382-24.9794 30.382-24.9794zm-19.061-12.5371c5.418-5.5517 9.385-8.4228 12.288-7.7529 4.064.957-.097 9.9541-4.547 14.9307-5.806 6.4121-11.805 8.4217-20.029 8.4217 4.644-6.6991 8.902-12.2499 12.288-15.5995zm-5.805-54.2675c-9.482-.0958-26.898-1.627-46.347-5.4551-8.3204 9.1875-14.4161 25.1709-24.9625 56.5635-11.6108 34.4536-33.9614 42.5896-58.1509 41.7286-14.1264-.479-23.511674-10.816-24.2856-22.491 0-.291.166504-.527.415527-.623.07959-.032.167969-.048.261719-.048.387204 0 .773924.383.773924.766.48389 6.412 4.93457 20.864 23.99563 20.864 20.4155 0 34.9292-14.643 46.6367-47.7582l4.4507-11.1015c7.063-18.9502 16.7387-31.0098 26.5108-38.7618l-5.2247-1.1484c-10.9331-2.4883-20.2217-3.3496-28.833-2.4883 2.6123 4.7852 3.8701 10.9102 3.3862 18.8545-1.3545 23.4483-23.6084 46.8965-42.6694 44.4082s-15.9648-29.6699 3.9673-49.0029c8.9014-8.6133 19.3511-14.7383 30.8652-18.1846-3.5801-3.7324-8.8052-6.6992-16.7392-8.80467l.1938-1.33984c7.6436 2.10547 13.7393 5.07231 17.9966 9.76171 13.8359-3.8281 29.1235-3.7324 44.7982.5742.506.1114 1.012.2559 1.499.3946.351.0996.692.1962 1.017.2763 4.547-2.3935 8.998-4.0205 13.062-5.1689 14.32-3.92385 23.318-3.2539 33.671-.7656 8.998 2.2011 13.642 7.083 13.449 10.9111-.29 5.0723-6.096 8.2305-19.738 8.0391zm5.418-17.5147c-13.352-3.2539-24.383-1.3398-33.477 1.4356-3.677 1.0527-6.87 2.2968-9.773 4.0205 2.911.8955 5.625 1.8154 8.272 2.7119 9.229 3.1279 17.637 5.9765 30.721 6.5713 6.483.2871 16.545-.2871 16.835-5.6465.194-3.8281-6.773-7.753-12.578-9.0928zm-125.0092 64.5068c18.6743 2.3926 36.6709-23.4482 36.8642-38.8564.0967-6.9873-.6772-13.0166-3.6767-17.8018-10.0625 1.2442-19.1577 5.168-28.6397 12.0586-17.8032 12.9209-23.125 42.2071-4.5478 44.5996z" fill="#2d2a26" fill-rule="evenodd"/></svg>

<svg alt="logo" width="543" height="200" viewBox="0 0 543 200" fill="none" xmlns="http://www.w3.org/2000/svg">
<path fill-rule="evenodd" clip-rule="evenodd" d="M300.814 66.1057C301.589 66.3928 302.266 67.0628 302.556 67.8284C302.752 68.2639 302.824 68.7249 302.81 69.1604C302.796 69.5852 302.7 69.9856 302.556 70.3167C301.688 72.1282 299.861 75.6731 298.018 79.2493C296.16 82.8518 294.287 86.4846 293.364 88.4055C288.043 99.5071 283.592 108.696 279.141 117.213C265.208 144.107 248.083 174.255 221.087 190.334C213.25 194.928 203.671 198.278 194.77 199.426C192.061 199.809 189.255 200 186.545 200C179.772 200 174.161 198.852 169.033 196.555C158.97 192.057 151.133 182.964 148.907 170.714C144.94 149.18 156.938 128.603 178.031 120.754C188.094 117.022 198.93 118.553 205.606 124.582C210.154 128.794 211.896 134.632 210.154 140.566C210.057 141.044 209.574 141.236 209.283 141.14C208.993 141.044 208.703 140.757 208.799 140.374C209.477 135.781 208.509 131.857 205.994 129.081C203.188 126.019 198.543 124.487 193.028 124.774C183.449 125.252 174.354 131.378 168.065 141.618C160.711 153.678 158.68 169.279 163.518 179.71C167.484 188.132 174.064 192.918 183.353 195.024C196.415 197.99 213.25 193.875 224.861 184.878C244.773 169.486 258.697 140.72 269.625 118.142L269.659 118.074L271.304 114.533C271.645 113.813 271.936 113.092 272.178 112.444C272.268 112.204 272.35 111.976 272.426 111.761C272.553 111.402 272.662 111.079 272.752 110.813L272.755 110.801C262.886 119.223 249.147 126.88 236.278 126.88C231.344 126.88 226.603 125.826 222.249 123.242C213.541 118.074 209.477 107.547 210.541 92.9036C211.509 80.1741 216.25 66.68 220.313 58.3528C233.763 30.9807 253.598 11.2649 276.142 2.84304C285.914 -0.794658 299.46 -1.65599 307.684 4.56569C311.071 7.14968 313.103 11.1692 313.683 16.2415C314.554 23.8987 311.748 32.4163 306.426 38.637C306.136 38.9241 305.749 38.9241 305.556 38.7327C305.266 38.5413 305.168 38.1585 305.362 37.8714C313.877 26.2913 314.167 11.6477 305.556 6.86257C295.88 1.50319 282.237 7.14968 276.045 10.4036C252.146 23.0374 236.956 49.8352 228.344 70.0296C224.087 79.9827 215.088 104.388 221.861 116.926C223.99 120.85 227.57 123.242 232.408 124.199C238.31 125.252 244.502 124.199 251.275 120.946C269.175 113.002 283.108 87.6399 294.525 63.8089C294.566 63.7688 294.624 63.7288 294.685 63.7024C294.713 63.6897 294.743 63.6809 294.771 63.677C294.799 63.6721 294.826 63.6731 294.85 63.679C294.874 63.6848 294.895 63.6956 294.913 63.7132L300.814 66.1057ZM540.19 26.8665L498.584 97.8811L496.649 101.709C490.844 111.759 488.715 118.937 490.941 120.564C497.714 125.445 508.938 111.376 514.356 103.145C525.773 85.5344 529.74 75.7727 529.74 75.7727L530.224 76.2512C530.425 76.4505 530.548 76.7278 530.592 77.0149C530.633 77.2796 530.607 77.553 530.514 77.7825C529.353 80.2708 525.483 88.3108 514.84 104.867C507.873 115.683 497.714 126.019 489.199 122.574C485.619 121.138 483.975 118.075 484.168 113.673C479.427 119.032 474.396 122.286 469.171 123.148C465.881 123.722 461.914 123.148 459.688 117.597C459.205 116.544 458.915 114.822 458.818 112.429C452.142 120.277 443.53 125.636 436.757 122.382C434.822 121.425 433.564 119.798 433.081 117.788C432.21 113.769 434.435 108.888 436.661 104.102C436.951 103.432 437.338 102.666 437.628 101.996C438.296 100.602 438.963 99.2073 439.675 97.8128L439.963 97.2532C440.086 97.0159 440.211 96.7786 440.337 96.5413C440.443 96.3167 440.552 96.0921 440.662 95.8675C440.903 95.3743 441.152 94.8811 441.401 94.388L441.698 93.7991C441.96 93.2776 442.22 92.7561 442.466 92.2346C442.553 92.0628 442.64 91.8723 442.735 91.6614L442.815 91.4876L442.91 91.2815C442.981 91.1292 443.058 90.968 443.144 90.7991C444.304 88.5979 446.143 85.1516 445.659 83.2376C445.369 82.1848 444.885 81.6106 444.014 81.3235C440.725 80.3665 433.274 85.8216 431.629 87.3538C422.972 95.553 417.909 106.614 412.518 118.391L411.698 120.181L410.827 122.191C410.73 122.382 410.633 122.478 410.44 122.382L406.183 120.851C405.744 120.727 405.426 120.482 405.178 120.169C405.044 119.999 404.93 119.809 404.828 119.607C404.69 119.335 404.618 119.042 404.611 118.739C404.603 118.4 404.675 118.046 404.828 117.693L407.15 112.429C400.958 119.894 393.411 125.349 386.928 122.669C383.348 121.234 381.703 118.171 381.896 113.769C377.156 119.128 372.125 122.382 366.899 123.243C363.61 123.818 359.643 123.243 357.417 117.693C356.934 116.449 356.546 114.056 356.643 110.898C349.773 119.511 340.485 125.827 333.325 122.286C331.39 121.329 330.132 119.702 329.648 117.693C327.81 110.802 334.776 99.6038 339.324 92.426C339.474 92.178 339.65 91.9046 339.826 91.6321L339.845 91.6028L340.125 91.1624L340.292 90.8948L342.807 86.8743C340.388 88.5979 337.969 89.9378 335.744 90.7991C331.293 92.426 325.488 93.1917 320.553 92.426L302.46 120.372C301.686 121.425 301.105 121.904 300.331 121.329C300.331 121.329 300.234 121.234 300.234 121.138V120.851L317.844 93.6702L318.812 92.0432C314.07 90.8948 309.813 87.8323 308.168 84.0989C305.653 78.0696 307.878 71.4661 313.78 67.4466C318.328 64.3831 324.423 64.1917 328.391 67.5423C333.325 71.7532 330.712 76.7298 324.811 85.8216L322.682 89.1721C323.158 89.3538 323.648 89.5071 324.147 89.6331C324.966 89.8401 325.808 89.9739 326.649 90.0335C334.776 90.7034 338.937 88.5022 344.549 82.9505C346 81.5149 350.064 75.5813 350.064 75.4856C350.161 75.3899 350.354 75.2942 350.451 75.3899L355.869 77.9739C356.072 78.0745 356.248 78.2005 356.384 78.3538C356.507 78.4925 356.597 78.6526 356.643 78.8352C356.74 79.218 356.74 79.6966 356.45 80.0794C354.418 83.2376 347.742 94.1487 343.581 101.326C338.743 109.845 336.034 117.023 337.195 119.511C338.356 122.286 344.839 120.564 350.064 115.683C352.386 113.482 354.708 111.089 356.74 108.314C357.224 104.293 358.481 99.4124 361.288 94.1487L361.377 93.9807C364.644 87.801 368.344 80.803 378.22 76.1555C382.477 74.1458 386.928 74.0501 390.121 75.8684C392.733 77.304 394.281 79.888 394.668 83.2376C394.765 83.6204 394.765 84.0989 394.765 84.4817C395.056 83.8118 395.442 83.2376 395.83 82.6634C396.208 82.1009 397.283 80.4153 398.281 78.8411C399.322 77.1985 400.28 75.677 400.28 75.677C400.32 75.638 400.376 75.5989 400.436 75.5725C400.521 75.5354 400.611 75.5247 400.667 75.5813C400.861 75.5813 404.925 77.2083 406.473 78.0696C406.86 78.261 407.15 78.5481 407.247 78.9309C407.292 79.1077 407.295 79.3059 407.267 79.5042C407.233 79.7356 407.157 79.969 407.053 80.1751C405.021 83.429 398.345 94.3401 394.185 101.518C388.379 111.568 386.25 118.745 388.476 120.372C394.378 124.775 403.764 114.439 409.666 106.303L413.439 97.7854L423.211 75.677C423.308 75.5813 423.502 75.4856 423.599 75.5813C423.599 75.5813 426.985 77.2083 429.114 78.1653C430.081 78.6438 430.565 79.7923 430.081 80.845C429.459 82.3001 428.076 85.1946 426.764 87.9407C425.832 89.8919 424.935 91.7678 424.373 93.0003C430.952 83.9075 439.37 76.7298 444.982 75.9641C450.11 75.2942 452.432 77.0169 453.496 78.5481C455.625 81.7063 454.948 87.2581 451.561 93.0003C450.303 95.2014 448.078 99.3167 447.014 101.326C442.176 109.845 439.467 117.023 440.627 119.511C441.789 122.286 448.271 120.564 453.496 115.683C455.334 113.96 457.173 112.142 458.818 110.132C459.011 105.824 460.269 100.274 463.462 94.1487L463.551 93.9788C466.819 87.7991 470.519 80.802 480.395 76.1555C484.652 74.1458 489.103 74.0501 492.295 75.8684C494.908 77.304 496.456 79.888 496.843 83.2376C496.865 83.3225 496.882 83.4134 496.895 83.5061C496.914 83.6448 496.925 83.7884 496.932 83.9309C496.936 84.0169 496.938 84.1018 496.938 84.1858L496.94 84.4817C507.486 46.9651 523.548 12.7971 531.869 9.63894C540.19 6.48073 547.06 15.094 540.19 26.8665ZM530.03 28.8762C535.933 18.635 535.739 13.8499 533.707 13.18C524.902 10.3089 504.583 61.6077 499.359 81.7063C500.021 80.5598 500.861 79.1116 501.84 77.428C503.729 74.177 506.137 70.0452 508.782 65.5051C515.979 53.1565 524.938 37.7835 530.03 28.8762ZM317.07 74.0501C315.135 77.0169 313.877 81.2278 317.554 85.5344C317.987 86.0579 318.516 86.5579 319.104 87.011C319.7 87.469 320.356 87.8782 321.037 88.2151L323.649 84.0032C326.165 80.1751 329.552 73.8587 325.101 71.3704C322.392 69.9348 318.812 71.2747 317.07 74.0501ZM383.832 98.8382C384.025 98.2639 384.412 97.4983 384.896 96.5413L385.337 95.6536C387.697 90.9143 391.882 82.51 390.702 78.7395C390.314 77.8782 389.831 77.304 388.96 76.9212C388.379 76.6341 387.896 76.5384 387.315 76.5384C381.993 76.5384 375.027 87.8323 372.608 91.9475L372.125 92.8089C366.029 102.762 359.643 116.066 361.868 120.181C362.352 121.138 363.223 121.616 364.48 121.712C368.448 121.616 375.704 116.736 383.832 98.8382ZM486.006 98.8382C486.2 98.2639 486.587 97.4983 487.071 96.5413C487.319 96.0393 487.601 95.4827 487.904 94.885C490.318 90.1194 494.08 82.6936 492.876 79.1223C492.489 78.261 492.005 77.6868 491.134 77.304C490.952 77.2132 490.778 77.1419 490.609 77.0862C490.455 77.0364 490.303 76.9993 490.15 76.9729C489.938 76.9368 489.721 76.9212 489.49 76.9212C484.168 76.9212 477.105 87.8323 474.686 91.9475L474.202 92.8089C468.203 102.762 462.107 115.874 464.333 119.99C464.599 120.515 464.981 120.897 465.48 121.15C465.618 121.219 465.764 121.279 465.918 121.329C466.226 121.429 466.568 121.492 466.945 121.521C470.913 121.425 477.879 116.736 486.006 98.8382ZM178.612 98.3596L177.354 97.6897C171.258 107.931 161.486 121.329 148.908 121.329C143.586 121.329 139.909 116.257 142.619 109.462C143.973 106.017 146.682 102.858 146.682 102.858C146.682 102.858 163.131 103.336 172.709 95.2014C182.385 87.0667 178.031 76.6341 169.13 76.1555C161.486 75.7727 152.004 80.7493 141.554 95.4885C141.247 95.8792 140.979 96.2903 140.733 96.7112C140.438 97.219 140.173 97.7415 139.909 98.2639C137.684 102.283 136.426 106.495 136.329 110.324C134.685 112.333 132.846 114.152 131.008 115.874C125.783 120.755 119.3 122.478 118.139 119.702C116.978 117.214 119.688 110.036 124.525 101.518C125.589 99.5081 127.815 95.3928 129.073 93.1917C132.459 87.4495 133.136 81.8977 131.008 78.7395C129.943 77.2083 127.621 75.4856 122.493 76.1555C116.881 76.9212 107.206 85.0569 100.723 94.4358C102.078 91.469 120.268 52.5159 121.332 50.0276C121.816 48.9749 121.332 47.8264 120.365 47.3479C118.236 46.3909 114.85 44.7639 114.85 44.7639C114.753 44.6682 114.559 44.7639 114.462 44.8596L90.9507 97.8811L82.2427 117.597C81.9521 118.267 81.9521 118.937 82.2427 119.511C82.3091 119.643 82.3809 119.77 82.46 119.889C82.7256 120.289 83.0752 120.608 83.5972 120.755L87.8545 122.286C87.9844 122.351 88.0708 122.328 88.1431 122.249C88.1782 122.21 88.21 122.157 88.2417 122.095L89.1123 120.085C94.8208 107.644 100.239 95.8714 109.238 87.2581C110.882 85.7268 118.042 80.2708 121.429 81.2278C121.628 81.2932 121.807 81.3733 121.967 81.471C122.144 81.5794 122.299 81.7083 122.436 81.8606C122.719 82.176 122.923 82.594 123.074 83.1419C123.551 85.0305 121.769 88.4094 120.605 90.6126L120.558 90.7034C120.397 91.0208 120.267 91.3089 120.149 91.5676C120.054 91.7776 119.967 91.968 119.881 92.1389C119.204 93.5745 118.429 95.01 117.752 96.4456C116.785 98.2639 115.914 100.082 115.043 101.901C114.897 102.238 114.727 102.598 114.557 102.958C114.388 103.316 114.22 103.673 114.075 104.006C111.85 108.792 109.625 113.673 110.496 117.693C110.979 119.702 112.237 121.329 114.172 122.286C120.945 125.636 129.653 120.085 136.329 112.238C136.36 112.418 136.39 112.609 136.42 112.802L136.475 113.147C136.523 113.457 136.571 113.769 136.62 114.056C137.781 118.65 140.586 123.339 148.23 123.339C165.55 123.339 178.612 98.3596 178.612 98.3596ZM159.551 85.8225C164.969 80.2708 168.936 77.3997 171.839 78.0696C175.903 79.0266 171.742 88.0237 167.292 93.0003C161.486 99.4124 155.487 101.422 147.263 101.422C151.907 94.7229 156.165 89.1721 159.551 85.8225ZM153.746 31.555C144.264 31.4592 126.848 29.928 107.399 26.0999C99.0786 35.2874 92.9829 51.2708 82.4365 82.6634C70.8257 117.117 48.4751 125.253 24.2856 124.392C10.1592 123.913 0.773926 113.576 0 101.901C0 101.61 0.166504 101.374 0.415527 101.278C0.495117 101.246 0.583496 101.23 0.677246 101.23C1.06445 101.23 1.45117 101.613 1.45117 101.996C1.93506 108.408 6.38574 122.86 25.4468 122.86C45.8623 122.86 60.376 108.217 72.0835 75.1018L76.5342 64.0003C83.5972 45.0501 93.2729 32.9905 103.045 25.2385L97.8203 24.0901C86.8872 21.6018 77.5986 20.7405 68.9873 21.6018C71.5996 26.387 72.8574 32.512 72.3735 40.4563C71.019 63.9046 48.7651 87.3528 29.7041 84.8645C10.6431 82.3762 13.7393 55.1946 33.6714 35.8616C42.5728 27.2483 53.0225 21.1233 64.5366 17.677C60.9565 13.9446 55.7314 10.9778 47.7974 8.87233L47.9912 7.53249C55.6348 9.63796 61.7305 12.6048 65.9878 17.2942C79.8237 13.4661 95.1113 13.5618 110.786 17.8684C111.292 17.9798 111.798 18.1243 112.285 18.263C112.636 18.3626 112.977 18.4592 113.302 18.5393C117.849 16.1458 122.3 14.5188 126.364 13.3704C140.684 9.44655 149.682 10.1165 160.035 12.6048C169.033 14.8059 173.677 19.6878 173.484 23.5159C173.194 28.5882 167.388 31.7464 153.746 31.555ZM159.164 14.0403C145.812 10.7864 134.781 12.7005 125.687 15.4759C122.01 16.5286 118.817 17.7727 115.914 19.4964C118.825 20.3919 121.539 21.3118 124.186 22.2083C133.415 25.3362 141.823 28.1848 154.907 28.7796C161.39 29.0667 171.452 28.4925 171.742 23.1331C171.936 19.305 164.969 15.3801 159.164 14.0403ZM34.1548 78.5471C52.8291 80.9397 70.8257 55.0989 71.019 39.6907C71.1157 32.7034 70.3418 26.6741 67.3423 21.8889C57.2798 23.1331 48.1846 27.0569 38.7026 33.9475C20.8994 46.8684 15.5776 76.1546 34.1548 78.5471Z" fill="#2D2A26"/>
</svg>
